X:1
T:The Pop Corn Man
T:The Pop Corn Man
T:Rag Two-Step
T:by JEAN SCHWARTZ
T:Copyright 1910 by JEROME H. REMICK &amp; Co
T:Copyright 1910 by JEROME H. REMICK &amp; Co
T:Copyright 1910 by JEROME H. REMICK &amp; Co
T:Copyright 1910 by JEROME H. REMICK &amp; Co
C:by JEAN SCHWARTZ
Z:Copyright 1910 by JEROME H. REMICK & Co
%%score { ( 1 3 ) | ( 2 4 ) }
L:1/8
Q:1/4=90
M:2/4
K:C
V:1 treble nm="Piano" snm="Pno."
V:3 treble 
V:2 bass 
V:4 bass 
V:1
"^Not fast"!f! (3e/f/^f/ | g/^f/g/a/- a/e/g | g/^f/g/a/- a/e/g | [=B=fg]4- | %4
 [Bfg] !^![Bfg]!^![cegc'] z |:!mf! [cg]/^f/g/[ea]/- [ea]/[^cg]e/ | [A=f]/d/f/[Be]/- [Be]/[Fd]B/ | %7
 [Ec]/B/c/[^Ge]/- [Ge]/[Ed]B/ | [Ec]/A/c/[^DB]/- [DB]/[B,A]^F/ | [B,G]/^F/G/[^CA]/- [CA]/[A,G]E/ | %10
 [A,=F]/D/F/[B,E]/- [B,E]/[F,D]B,/ | %11
"^Steamboat whistle"{G,A,B,} [G,C][G,B,]/[G,C]/- [G,C]/[G,B,]/[G,C] | %12
 [CE][C^D]/[CE]/- [CE]/[CD]/[CE] | [EG][^D^F]/[EG]/- [EG]/[DF]/[EG] | [Gc][GB]/[Gc]/- [Gc]/d/e/f/ | %15
 [cg]/^f/g/[ea]/- [ea]/[^cg]e/ | [A=f]/d/f/[Be]/- [Be]/[Fd]B/ | [Ec]/B/c/[^Ge]/- [Ge]/[Ed]B/ | %18
 [Ec]/A/c/[^DB]/- [DB]/[B,A]^F/ | [B,G]/^F/G/[^CA]/- [CA]/[A,G]E/ | %20
 [A,=F]/D/F/[B,E]/- [B,E]/[F,D]B,/ |{G,A,B,} [G,C][C^D]/[CE]/- [CE]/[C^D]/[CE] |1 %22
 C!^!G,!^!A,!^!B, :|2 C z [CEGc] z |:[K:F]!mf!!f!"_-" F2 c2 | ^G/=B/d/f/- f/d/B/G/ | cc =BB | %27
 [F_B]/A/B/[Ed]/- [Ed]/B/A/G/ | F/E/F/D/- D[DFd]- | [DFd]D/E/ F/D/E/F/ | %30
 G/[F=Bd]^c/ [F_Bd]/c/[FBd]/e/ | [EG_Bd][EGB_d]/[EGBc]/- [EGBc]/B/A/G/ | F2 c2 | %33
 ^G/=B/d/f/- f/d/B/G/ | cc =BB | [F_B]/A/B/[Ed]/- [Ed]/B/A/G/ | F/E/F/[FAd]/- [FAd]/A/[Fc] | %37
 B/A/B/f/- f/FG/ | A/G/F/D/ [=B,F]/[_B,G]C/ |1 [A,CF]4 :|2 [A,CF]2 !^![FAcf] (3e/f/^f/ || %41
[K:C]!f! [cg]/^f/g/[ea]/- [ea]/[^cg]e/ | [A=f]/d/f/[Be]/- [Be]/[Fd]B/ | %43
 [Ec]/B/c/[^Ge]/- [Ge]/[Ed]B/ | [Ec]/A/c/[^DB]/- [DB]/[B,A]^F/ | [B,G]/^F/G/[^CA]/- [CA]/[A,G]E/ | %46
 [A,=F]/D/F/[B,E]/- [B,E]/[F,D]B,/ | %47
"^Steamboat whistle"{G,A,B,} [G,C][G,B,]/[G,C]/- [G,C]/[G,B,]/[G,C] | %48
 [CE][C^D]/[CE]/- [CE]/[CD]/[CE] | [EG][^D^F]/[EG]/- [EG]/[DF]/[EG] | [Gc][GB]/[Gc]/- [Gc]/d/e/f/ | %51
 [cg]/^f/g/[ea]/- [ea]/[^cg]e/ | [A=f]/d/f/[Be]/- [Be]/[Fd]B/ | [Ec]/B/c/[^Ge]/- [Ge]/[Ed]B/ | %54
 [Ec]/A/c/[^DB]/- [DB]/[B,A]^F/ | [B,G]/^F/G/[^CA]/- [CA]/[A,G]E/ | %56
 [A,=F]/D/F/[B,E]/- [B,E]/[F,D]B,/ |{G,A,B,} [G,C][C^D]/[CE]/- [CE]/[C^D]/[CE] | C z !^![CEGc] z |: %59
[K:F]!p!!f!"_-""^TRIO" [A,A]2 [A,A]2- | [A,A]/F/G/[A,A]/- [A,A]/F/G/A/ | [B,B]2 [B,B]2- | %62
 [B,B]/G/A/[B,B]/- [B,B]/G/A/=B/ |!<(! [EBc]/[EBe][EBd]/ [EBc][EBe]/[EBd]/ | %64
 [EBc]/[EBe][EBd]/ [EBc]3/2!<)! (3c/4d/4e/4 | z4 | z4 | [A,A]2 [A,A]2- | %68
 [A,A]/F/G/[A,A]/- [A,A]/F/G/A/ | [B,B]2 [B,B]2- | [B,B]/G/A/[B,B]/- [B,B]/G/A/=B/ | %71
!<(! [EBc]/[EBe][EBd]/ [EBc][EBe]/[EBd]/ | [EBc]/[EBe][EBd]/ [EBc]3/2!<)! (3c/4d/4e/4 | %73
 !>!f/e/f/=B/ c/^G/A/E/ ||1 F z z2 :|2 F!^![EGBc]!^![FAcf] z/ (3e/4f/4^f/4 || %76
[K:C]!f! [cg]/^f/g/[ea]/- [ea]/[^cg]e/ | [A=f]/d/f/[Be]/- [Be]/[Fd]B/ | %78
 [Ec]/B/c/[^Ge]/- [Ge]/[Ed]B/ | [Ec]/A/c/[^DB]/- [DB]/[B,A]^F/ | [B,G]/^F/G/[^CA]/- [CA]/[A,G]E/ | %81
 [A,=F]/D/F/[B,E]/- [B,E]/[F,D]B,/ | %82
"^Steamboat whistle"{G,A,B,} [G,C][G,B,]/[G,C]/- [G,C]/[G,B,]/[G,C] | %83
 [CE][C^D]/[CE]/- [CE]/[CD]/[CE] | [EG][^D^F]/[EG]/- [EG]/[DF]/[EG] | [Gc][GB]/[Gc]/- [Gc]/d/e/f/ | %86
 [cg]/^f/g/[ea]/- [ea]/[^cg]e/ | [A=f]/d/f/[Be]/- [Be]/[Fd]B/ | [Ec]/B/c/[^Ge]/- [Ge]/[Ed]B/ | %89
 [Ec]/A/c/[^DB]/- [DB]/[B,A]^F/ | [B,G]/^F/G/[^CA]/- [CA]/[A,G]E/ | %91
 [A,=F]/D/F/[B,E]/- [B,E]/[F,D]B,/ |{G,A,B,} [G,C][C^D]/[CE]/- [CE]/[C^D]/[CE] | %93
 C z !^![CEGc] z/ (3e/4f/4^f/4 ||"^CODA"!f! g/^f/g/a/- a/e/g | g/^f/g/a/- a/e/g | [_B=fg]4- | %97
 [Bfg] !^![=Bfg]!^![cegc'] z |] %98
V:2
 x | [G,CE]3 [G,CE] | [G,^CE]3 [G,CE] | [G,DF]^A,/B,/- B,/^F,/G,/^C,/ | D,!^!G,,!^!C,, z |: %5
 C,[G,CE] ^C,[G,_B,E] | D,[G,=B,F] [G,,G,][^G,,^G,] | [A,,A,][E,A,C] [B,,B,][E,^G,D] | %8
 [A,,A,][E,A,C] [^F,,^F,][^D,,^D,] | [E,,E,] z [A,,,A,,][^C,,^C,] | [D,,D,] z [G,,,G,,] z | %11
 E,^D,/E,/- E,/D,/E, | G,^F,/G,/- G,/F,/G, | CB,/C/- C/B,/C | E^D/E/- E z | C,[G,CE] ^C,[G,_B,E] | %16
 D,[G,=B,F] [G,,G,][^G,,^G,] | [A,,A,][E,A,C] [B,,B,][E,^G,D] | [A,,A,][E,A,C] [^F,,^F,][^D,,^D,] | %19
 [E,,E,] z [A,,,A,,][^C,,^C,] | [D,,D,] z [G,,,G,,] z | E,^F,/G,/- G,/F,/G, |1 %22
 E,!^!G,,!^!A,,!^!B,, :|2 [C,,C,]G,, C,, z |:[K:F] [F,,F,]2 [A,,A,]2 | %25
 [=B,,=B,][^G,B,DF] [D,D][G,B,DF] | [A,,A,]2 [_A,,_A,]2 | [G,,G,][G,_B,D] [C,,C,][G,B,CE] | %28
 [D,,D,]2 [C,,C,]2 | [B,,,B,,]2 [A,,,A,,]2 | [G,,,G,,][F,G,=B,] G,,[F,G,B,] | %31
 C,G,/C/- C/B,/A,/G,/ | [F,,F,]2 [A,,A,]2 | [=B,,=B,][^G,B,DF] [D,D][G,B,DF] | %34
 [A,,A,]2 [_A,,_A,]2 | [G,,G,][G,_B,D] [C,,C,][G,B,CE] | [F,,F,][F,A,C] [_E,,_E,][F,A,C] | %37
 [D,,D,][F,B,] [_D,,_D,][G,=B,] | [C,,C,][A,C] [=D,,=D,][E,,E,] |1 [F,,F,][C,,C,][D,,D,][E,,E,] :|2 %40
 [F,,F,][C,,C,] !^![F,,,F,,] z ||[K:C] C,[G,CE] ^C,[G,_B,E] | D,[G,=B,F] [G,,G,][^G,,^G,] | %43
 [A,,A,][E,A,C] [B,,B,][E,^G,D] | [A,,A,][E,A,C] [^F,,^F,][^D,,^D,] | %45
 [E,,E,] z [A,,,A,,][^C,,^C,] | [D,,D,] z [G,,,G,,] z | E,^D,/E,/- E,/D,/E, | G,^F,/G,/- G,/F,/G, | %49
 CB,/C/- C/B,/C | E^D/E/- E z | C,[G,CE] ^C,[G,_B,E] | D,[G,=B,F] [G,,G,][^G,,^G,] | %53
 [A,,A,][E,A,C] [B,,B,][E,^G,D] | [A,,A,][E,A,C] [^F,,^F,][^D,,^D,] | %55
 [E,,E,] z [A,,,A,,][^C,,^C,] | [D,,D,] z [G,,,G,,] z | E,^F,/G,/- G,/F,/G, | %58
 [C,,C,]G,, !^!C,, z |:[K:F] [G,,G,]2 [E,,E,]2 | [D,,D,]3 [C,,C,] | [G,,G,]2 [F,,F,]2 | %62
 [E,,E,]3 [D,,D,] | [G,,G,][^F,,^F,] [G,,G,][F,,F,] | [G,,G,][^F,,^F,][G,,G,][^G,,^G,] | %65
 !arpeggio![F,,C,A,]"^Whistle" z z2 | z4 | [G,,G,]2 [E,,E,]2 | [D,,D,]3 [C,,C,] | %69
 [G,,G,]2 [F,,F,]2 | [E,,E,]3 [D,,D,] | [G,,G,][^F,,^F,] [G,,G,][F,,F,] | %72
 [G,,G,][^F,,^F,][G,,G,][^G,,^G,] | !arpeggio![F,,C,A,] z z2 ||1 %74
 !^![F,,F,]!^![E,,E,]!^![D,,D,]!^![C,,C,] :|2 [F,,F,]!^![C,,C,]!^![F,,,F,,] z || %76
[K:C] C,[G,CE] ^C,[G,_B,E] | D,[G,=B,F] [G,,G,][^G,,^G,] | [A,,A,][E,A,C] [B,,B,][E,^G,D] | %79
 [A,,A,][E,A,C] [^F,,^F,][^D,,^D,] | [E,,E,] z [A,,,A,,][^C,,^C,] | [D,,D,] z [G,,,G,,] z | %82
 E,^D,/E,/- E,/D,/E, | G,^F,/G,/- G,/F,/G, | CB,/C/- C/B,/C | E^D/E/- E z | C,[G,CE] ^C,[G,_B,E] | %87
 D,[G,=B,F] [G,,G,][^G,,^G,] | [A,,A,][E,A,C] [B,,B,][E,^G,D] | [A,,A,][E,A,C] [^F,,^F,][^D,,^D,] | %90
 [E,,E,] z [A,,,A,,][^C,,^C,] | [D,,D,] z [G,,,G,,] z | E,^F,/G,/- G,/F,/G, | %93
 [C,,C,]G,, !^!C,, z || [G,CE]3 [G,CE] | [G,^CE]3 [G,CE] | [G,DF]^A,/B,/- B,/^F,/G,/^C,/ | %97
 D,!^!G,,!^!C,, z |] %98
V:3
 x | c3 c | _B3 B | x4 | x4 |: x4 | x4 | x4 | x4 | x4 | x4 | e4 | e4 | x4 | x4 | x4 | x4 | x4 | %18
 x4 | x4 | x4 | x4 |1 x4 :|2 x4 |:[K:F] z [A,C] z [CF] | x4 | z [CF] z [DF] | x4 | x4 | x4 | x4 | %31
 x4 | z [A,C] z [CF] | x4 | z [CF] z [DF] | x4 | x4 | F2 F2 | x4 |1 x4 :|2 x4 ||[K:C] x4 | x4 | %43
 x4 | x4 | x4 | x4 | e4 | e4 | x4 | x4 | x4 | x4 | x4 | x4 | x4 | x4 | x4 | x4 |: %59
[K:F] z"^Pop" [CF] z"^Pop" [^CG] | x4 | z"^Pop" [DG] z"^Pop" [DG] | x4 | x4 | x4 | f/g/a/g/ f/df/ | %66
 c/d/e/d/ c/G^G/ | z"^Pop" [CF] z"^Pop" [^CG] | x4 | z"^Pop" [DG] z"^Pop" [DG] | x4 | x4 | x4 | %73
 x4 ||1 x4 :|2 x4 ||[K:C] x4 | x4 | x4 | x4 | x4 | x4 | e4 | e4 | x4 | x4 | x4 | x4 | x4 | x4 | %90
 x4 | x4 | x4 | x4 || c3 c | _B3 B | x4 | x4 |] %98
V:4
 x | x4 | x4 | x4 | x4 |: x4 | x4 | x4 | x4 | x4 | x4 | x4 | x4 | x4 | x4 | x4 | x4 | x4 | x4 | %19
 x4 | x4 | x4 |1 C,G,,A,,B,, :|2 x4 |:[K:F] x4 | x4 | x4 | x4 | x4 | x4 | x4 | x4 | x4 | x4 | x4 | %35
 x4 | F,2 _E,2 | x4 | x4 |1 x4 :|2 x4 ||[K:C] x4 | x4 | x4 | x4 | x4 | x4 | x4 | x4 | x4 | x4 | %51
 x4 | x4 | x4 | x4 | x4 | x4 | x4 | x4 |:[K:F] x4 | x4 | x4 | x4 | x4 | x4 | x4 | x4 | x4 | x4 | %69
 x4 | x4 | x4 | x4 | x4 ||1 x4 :|2 x4 ||[K:C] x4 | x4 | x4 | x4 | x4 | x4 | x4 | x4 | x4 | x4 | %86
 x4 | x4 | x4 | x4 | x4 | x4 | x4 | x4 || x4 | x4 | x4 | x4 |] %98

